packages/foundations/assets/icons/functional/images/devices/printer_14.svg

<svg width="14" height="14" viewBox="0 0 14 14" fill="none" xmlns="http://www.w3.org/2000/svg">
<g clip-path="url(#clip0_185_782)">
<path fill-rule="evenodd" clip-rule="evenodd" d="M9.10002 1.39999C9.45002 1.39999 9.80002 1.70799 9.80002 2.09999V2.79999H11.4844C12.1625 2.79999 12.6 3.41249 12.6 4.06874V8.50937C12.6 9.18749 12.1844 9.79999 11.4844 9.79999H9.80002V11.9C9.80002 12.2937 9.49377 12.6 9.10002 12.6H4.90002C4.52818 12.6 4.20002 12.3375 4.20002 11.9V9.79999H2.51568C1.83752 9.79999 1.40002 9.16562 1.40002 8.50937V4.06874C1.40002 3.41249 1.79377 2.79999 2.51568 2.79999H4.20002V2.09999C4.20002 1.70624 4.52818 1.39999 4.90002 1.39999H9.10002ZM8.40002 8.39999H5.60002V11.2H8.40002V8.39999ZM11.2 4.19999H2.80002V8.39999H4.20002V7.69999C4.20002 7.34999 4.55002 6.99999 4.90002 6.99999H9.10002C9.45002 6.99999 9.80002 7.34999 9.80002 7.69999V8.39999H11.2V4.19999Z" fill="#1A1C1F"/>
</g>
<defs>
<clipPath id="clip0_185_782">
<rect width="14" height="14" fill="white"/>
</clipPath>
</defs>
</svg>

<svg xmlns="http://www.w3.org/2000/svg" width="14" height="14" fill="none"><g clip-path="url(#a)"><path fill="#1A1C1F" fill-rule="evenodd" d="M9.1 1.4c.35 0 .7.308.7.7v.7h1.684c.678 0 1.116.612 1.116 1.269v4.44c0 .678-.416 1.291-1.116 1.291H9.8v2.1c0 .394-.306.7-.7.7H4.9c-.372 0-.7-.262-.7-.7V9.8H2.516C1.838 9.8 1.4 9.166 1.4 8.51V4.068c0-.657.394-1.269 1.116-1.269H4.2v-.7c0-.394.328-.7.7-.7zm-.7 7H5.6v2.8h2.8zm2.8-4.2H2.8v4.2h1.4v-.7c0-.35.35-.7.7-.7h4.2c.35 0 .7.35.7.7v.7h1.4z" clip-rule="evenodd"/></g><defs><clipPath id="a"><path fill="#fff" d="M0 0h14v14H0z"/></clipPath></defs></svg>
